; generated by PrusaSlicer 2.5.0+MacOS-x64 on 2022-12-15 at 17:39:57 UTC


;
;
; 

; external perimeters extrusion width = 0.45mm
; perimeters extrusion width = 0.45mm
; infill extrusion width = 0.45mm
; solid infill extrusion width = 0.45mm
; top infill extrusion width = 0.40mm
; support material extrusion width = 0.35mm
; first layer extrusion width = 0.42mm

M73 P0 R9
M73 Q0 S9
M201 X1000 Y1000 Z200 E5000 ; sets maximum accelerations, mm/sec^2
M203 X200 Y200 Z12 E120 ; sets maximum feedrates, mm / sec
M204 P1250 R1250 T1250 ; sets acceleration (P, T) and retract acceleration (R), mm/sec^2
M205 X8.00 Y8.00 Z0.40 E4.50 ; sets the jerk limits, mm/sec
M205 S0 T0 ; sets the minimum extruding and travel feed rate, mm/sec
M107
;TYPE:Custom
M862.3 P "MK3SMMU2S" ; printer model check
M862.1 P0.4 ; nozzle diameter check
M115 U3.11.0 ; tell printer latest fw version
G90 ; use absolute coordinates
M83 ; extruder relative mode
M104 S260 ; set extruder temp
M140 S105 ; set bed temp
Tx
M190 S105 ; wait for bed temp
M109 S260 ; wait for extruder temp
G28 W ; home all without mesh bed level
G80 ; mesh bed leveling

;go outside print area
G1 Y-3 F1000
G1 Z0.4 F1000
; select extruder
Tc
; purge line
G1 X55 F2000
G1 Z0.3 F1000
G92 E0
G1 X240 E25 F2200
G1 Y-2 F1000
M73 P1 R8
M73 Q1 S9
G1 X55 E25 F1400
G1 Z0.2 F1000
M73 P2 R8
M73 Q2 S9
G1 X5 E4 F1000

M221 S95
G92 E0

; Don't change E values below. Excessive value can damage the printer.
M907 E430 ; set extruder motor current
G21 ; set units to millimeters
G90 ; use absolute coordinates
M83 ; use relative distances for extrusion
M900 K0.04 ; Filament gcode LA 1.5
M900 K20 ; Filament gcode LA 1.0
M107
;LAYER_CHANGE
;Z:0.2
;HEIGHT:0.2
;BEFORE_LAYER_CHANGE
G92 E0.0
;0.2


G1 E-.8 F2100
M73 P3 R8
M73 Q3 S9
G1 Z.4 F720
;AFTER_LAYER_CHANGE
;0.2
G1 X118.869 Y69.202 F10800
G1 Z.2 F720
G1 E.8 F2100
M204 S800
;TYPE:Skirt/Brim
;WIDTH:0.42
G1 F1200
G1 X119.755 Y68.316 E.0393
G1 X121.433 Y67.623 E.0569
G1 X128.567 Y67.623 E.22368
G1 X130.235 Y68.306 E.05651
G1 X131.131 Y69.202 E.03973
G1 X131.827 Y70.883 E.05704
G1 X131.827 Y139.117 E2.13944
G1 X131.131 Y140.798 E.05704
M73 P4 R8
M73 Q4 S8
G1 X130.315 Y141.614 E.0362
G1 X128.567 Y142.377 E.05978
G1 X121.433 Y142.377 E.22368
G1 X119.741 Y141.669 E.05752
G1 X118.869 Y140.798 E.03864
G1 X118.173 Y139.117 E.05704
G1 X118.173 Y70.883 E2.13944
G1 X118.846 Y69.257 E.05516
M204 S1000
; printing object MGN9_Assembly_Tool.stl id:0 copy 0
;WIPE_START
M73 P5 R8
G1 F8640
M73 Q5 S8
G1 X119.755 Y68.316 E-.30227
G1 X121.433 Y67.623 E-.41905
G1 X121.6 Y67.623 E-.03867
;WIPE_END
G1 E-.04 F2100
G1 Z.6 F720
G1 X126.48 Y138.836 F10800
G1 Z.2 F720
G1 E.8 F2100
M204 S800
;TYPE:Perimeter
;WIDTH:0.419999
G1 F1200
G1 X126.915 Y138.62 E.01522
G1 X127.546 Y138.127 E.02509
G1 X128.018 Y137.571 E.02288
G1 X128.286 Y137.108 E.01677
G1 X128.286 Y138.635 E.04788
G1 X128.085 Y138.836 E.00891
G1 X126.54 Y138.836 E.04843
M204 S1000
;WIPE_START
G1 F8640
G1 X126.915 Y138.62 E-.09987
G1 X127.546 Y138.127 E-.18479
G1 X128.018 Y137.571 E-.16849
G1 X128.286 Y137.108 E-.12352
G1 X128.286 Y137.902 E-.18333
;WIPE_END
G1 E-.04 F2100
G1 Z.6 F720
G1 X127.891 Y138.36 F10800
G1 Z.2 F720
G1 E.8 F2100
M204 S800
;WIDTH:0.515182
G1 F1200
G1 X127.832 Y138.36 E.00232
G1 X127.802 Y138.411 E.00232
G1 X127.832 Y138.462 E.00232
G1 X127.891 Y138.462 E.00232
G1 X127.92 Y138.411 E.00232
M204 S1000
;WIPE_START
G1 F8640
G1 X127.891 Y138.462 E-.01363
G1 X127.832 Y138.462 E-.01363
G1 X127.802 Y138.411 E-.01363
G1 X127.832 Y138.36 E-.01363
G1 X127.891 Y138.36 E-.01363
;WIPE_END
G1 E-.73185 F2100
G1 Z.6 F720
G1 X121.714 Y137.108 F10800
G1 Z.2 F720
G1 E.8 F2100
M204 S800
;WIDTH:0.419999
G1 F1200
G1 X122.097 Y137.731 E.02293
G1 X122.625 Y138.285 E.02399
G1 X123.085 Y138.62 E.01784
G1 X123.52 Y138.836 E.01522
G1 X121.915 Y138.836 E.05031
G1 X121.714 Y138.635 E.00891
G1 X121.714 Y137.168 E.046
M204 S1000
;WIPE_START
G1 F8640
G1 X122.097 Y137.731 E-.15722
G1 X122.625 Y138.285 E-.1767
G1 X123.085 Y138.62 E-.13139
G1 X123.52 Y138.836 E-.11208
G1 X122.729 Y138.836 E-.18261
;WIPE_END
G1 E-.04 F2100
G1 Z.6 F720
G1 X122.168 Y138.36 F10800
G1 Z.2 F720
G1 E.8 F2100
M204 S800
;WIDTH:0.515182
G1 F1200
G1 X122.109 Y138.36 E.00232
G1 X122.08 Y138.411 E.00232
G1 X122.109 Y138.462 E.00232
G1 X122.168 Y138.462 E.00232
G1 X122.198 Y138.411 E.00232
M204 S1000
;WIPE_START
G1 F8640
G1 X122.168 Y138.462 E-.01363
G1 X122.109 Y138.462 E-.01363
G1 X122.08 Y138.411 E-.01363
G1 X122.109 Y138.36 E-.01363
G1 X122.168 Y138.36 E-.01363
;WIPE_END
G1 E-.73185 F2100
G1 Z.6 F720
G1 X128.286 Y72.892 F10800
G1 Z.2 F720
G1 E.8 F2100
M204 S800
;WIDTH:0.419999
G1 F1200
G1 X127.903 Y72.269 E.02293
G1 X127.375 Y71.715 E.024
G1 X126.915 Y71.38 E.01784
G1 X126.48 Y71.164 E.01522
G1 X128.085 Y71.164 E.05031
G1 X128.286 Y71.365 E.00891
G1 X128.286 Y72.832 E.046
M204 S1000
;WIPE_START
G1 F8640
G1 X127.903 Y72.269 E-.15722
G1 X127.375 Y71.715 E-.17671
G1 X126.915 Y71.38 E-.13139
G1 X126.48 Y71.164 E-.11208
G1 X127.271 Y71.164 E-.18261
;WIPE_END
G1 E-.04 F2100
G1 Z.6 F720
G1 X127.891 Y71.538 F10800
G1 Z.2 F720
G1 E.8 F2100
M204 S800
;WIDTH:0.515178
G1 F1200
G1 X127.832 Y71.538 E.00232
G1 X127.802 Y71.589 E.00232
G1 X127.832 Y71.64 E.00232
G1 X127.891 Y71.64 E.00232
G1 X127.92 Y71.589 E.00232
M204 S1000
;WIPE_START
G1 F8640
G1 X127.891 Y71.64 E-.01363
G1 X127.832 Y71.64 E-.01363
G1 X127.802 Y71.589 E-.01363
G1 X127.832 Y71.538 E-.01363
G1 X127.891 Y71.538 E-.01363
;WIPE_END
G1 E-.73185 F2100
G1 Z.6 F720
G1 X121.714 Y72.907 F10800
G1 Z.2 F720
G1 E.8 F2100
M204 S800
;WIDTH:0.419999
G1 F1200
G1 X121.714 Y71.365 E.04836
G1 X121.915 Y71.164 E.00891
G1 X123.496 Y71.164 E.04956
G1 X122.769 Y71.597 E.02652
M73 P6 R8
G1 X122.215 Y72.125 E.02399
G1 X121.88 Y72.585 E.01784
G1 X121.742 Y72.854 E.00949
M204 S1000
;WIPE_START
G1 F8640
G1 X121.714 Y71.365 E-.34386
G1 X121.915 Y71.164 E-.06561
G1 X123.433 Y71.164 E-.35053
;WIPE_END
G1 E-.04 F2100
M73 Q6 S8
G1 Z.6 F720
G1 X128.663 Y138.791 F10800
G1 Z.2 F720
G1 E.8 F2100
M204 S800
G1 F1200
G1 X128.241 Y139.213 E.0187
G1 X126.019 Y139.213 E.06968
;WIDTH:0.451685
G1 X125.285 Y139.197 E.02496
;WIDTH:0.460366
G1 X124.55 Y139.193 E.02549
G1 X123.981 Y139.213 E.01976
;WIDTH:0.419999
G1 X121.759 Y139.213 E.06968
G1 X121.337 Y138.791 E.0187
G1 X121.337 Y136.883 E.05983
;WIDTH:0.45114
G1 X121.353 Y136.148 E.02494
G1 X121.337 Y135.506 E.02182
;WIDTH:0.41938
G1 X121.337 Y74.494 E1.90983
;WIDTH:0.435087
G1 X121.337 Y73.487 E.03286
;WIDTH:0.419999
G1 X121.337 Y71.209 E.07142
G1 X121.759 Y70.787 E.0187
G1 X123.609 Y70.787 E.05801
;WIDTH:0.448128
G1 X123.979 Y70.801 E.01246
;WIDTH:0.476256
G1 X124.348 Y70.815 E.01332
G1 X124.9 Y70.801 E.01988
;WIDTH:0.460361
G1 X125.45 Y70.807 E.01909
G1 X126.019 Y70.787 E.01976
;WIDTH:0.419999
G1 X128.241 Y70.787 E.06968
G1 X128.663 Y71.209 E.0187
G1 X128.663 Y73.117 E.05983
;WIDTH:0.451141
G1 X128.647 Y73.852 E.02494
G1 X128.663 Y74.494 E.02182
;WIDTH:0.419379
G1 X128.663 Y135.506 E1.90983
;WIDTH:0.421471
G1 X128.662 Y135.585 E.0025
;WIDTH:0.445077
M73 P7 R8
M73 Q7 S8
G1 X128.663 Y136.883 E.0434
;WIDTH:0.419999
G1 X128.663 Y138.731 E.05795
M204 S1000
G1 X129.04 Y138.947 F10800
M204 S800
;TYPE:External perimeter
G1 F1200
G1 X128.397 Y139.59 E.0285
G1 X121.603 Y139.59 E.21304
G1 X120.96 Y138.947 E.0285
G1 X120.96 Y71.053 E2.12879
G1 X121.603 Y70.41 E.0285
M73 P8 R8
M73 Q8 S8
G1 X128.397 Y70.41 E.21304
G1 X129.04 Y71.053 E.0285
G1 X129.04 Y138.887 E2.1269
M204 S1000
G1 X128.64 Y138.949 F10800
;WIPE_START
M73 P9 R8
G1 F8640
G1 X128.397 Y139.59 E-.21988
G1 X126.058 Y139.59 E-.54012
;WIPE_END
G1 E-.04 F2100
G1 Z.6 F720
G1 X122.17 Y71.539 F10800
G1 Z.2 F720
M73 Q9 S8
G1 E.8 F2100
M204 S800
;TYPE:Perimeter
;WIDTH:0.518248
G1 F1200
G1 X122.111 Y71.539 E.00235
G1 X122.081 Y71.59 E.00235
G1 X122.111 Y71.642 E.00235
G1 X122.17 Y71.642 E.00235
G1 X122.2 Y71.59 E.00235
M204 S1000
;WIPE_START
G1 F8640
G1 X122.17 Y71.642 E-.01372
G1 X122.111 Y71.642 E-.01372
G1 X122.081 Y71.59 E-.01372
G1 X122.111 Y71.539 E-.01372
G1 X122.17 Y71.539 E-.01372
;WIPE_END
G1 E-.7314 F2100
G1 Z.6 F720
G1 X121.78 Y136.173 F10800
G1 Z.2 F720
G1 E.8 F2100
M204 S800
;WIDTH:0.445079
G1 F1200
G1 X121.715 Y135.565 E.02044
;WIDTH:0.421471
G1 X121.713 Y135.506 E.00187
;WIDTH:0.41938
G1 X121.713 Y74.494 E1.90983
;WIDTH:0.435087
G1 X121.733 Y74.096 E.01299
G1 X121.858 Y73.541 E.01856
;WIDTH:0.419999
G1 X122.126 Y72.909 E.02153
G1 X122.52 Y72.346 E.02153
G1 X123.022 Y71.878 E.02153
G1 X123.61 Y71.524 E.02153
;WIDTH:0.462637
G1 X124.253 Y71.279 E.02399
G1 X124.921 Y71.203 E.02348
;WIDTH:0.460361
G1 X125.406 Y71.22 E.01685
G1 X125.959 Y71.358 E.01976
;WIDTH:0.419999
G1 X126.591 Y71.626 E.02153
G1 X127.154 Y72.02 E.02153
G1 X127.622 Y72.522 E.02153
G1 X127.976 Y73.11 E.02153
;WIDTH:0.43818
G1 X128.209 Y73.757 E.02258
G1 X128.285 Y74.435 E.02243
;WIDTH:0.421471
G1 X128.287 Y74.494 E.00187
;WIDTH:0.419379
G1 X128.287 Y135.506 E1.90983
;WIDTH:0.451141
G1 X128.24 Y136.127 E.02114
M73 P10 R8
M73 Q10 S8
G1 X128.024 Y136.782 E.02341
;WIDTH:0.419999
G1 X127.692 Y137.383 E.02153
G1 X127.265 Y137.875 E.02042
G1 X126.693 Y138.315 E.02263
G1 X126.071 Y138.605 E.02153
;WIDTH:0.454955
G1 X125.406 Y138.777 E.02355
G1 X124.715 Y138.788 E.02365
;WIDTH:0.451685
G1 X124.041 Y138.642 E.02345
;WIDTH:0.419999
G1 X123.409 Y138.374 E.02153
G1 X122.846 Y137.98 E.02153
G1 X122.378 Y137.478 E.02153
G1 X122.024 Y136.89 E.02153
;WIDTH:0.445079
G1 X121.787 Y136.233 E.02336
M204 S1000
G1 X122.164 Y136.141 F10800
M204 S800
;TYPE:External perimeter
;WIDTH:0.419999
G1 F1200
G1 X122.09 Y135.506 E.02006
G1 X122.09 Y74.494 E1.91297
G1 X122.109 Y74.176 E.00999
M73 P11 R8
M73 Q11 S8
G1 X122.227 Y73.62 E.01784
G1 X122.471 Y73.062 E.01907
G1 X122.825 Y72.568 E.01907
G1 X123.274 Y72.158 E.01907
G1 X123.799 Y71.85 E.01907
G1 X124.376 Y71.658 E.01907
G1 X124.963 Y71.592 E.01852
G1 X125.324 Y71.609 E.01133
G1 X125.88 Y71.727 E.01784
G1 X126.438 Y71.971 E.01907
G1 X126.932 Y72.325 E.01907
G1 X127.342 Y72.774 E.01907
G1 X127.65 Y73.299 E.01907
G1 X127.842 Y73.876 E.01907
G1 X127.91 Y74.494 E.01951
G1 X127.91 Y135.506 E1.91297
G1 X127.85 Y136.086 E.01828
M73 P11 R7
G1 X127.666 Y136.665 E.01907
G1 X127.365 Y137.194 E.01907
G1 X126.985 Y137.622 E.01795
G1 X126.472 Y138.01 E.02016
G1 X125.918 Y138.261 E.01907
G1 X125.324 Y138.391 E.01907
G1 X124.715 Y138.395 E.01907
G1 X124.12 Y138.273 E.01907
G1 X123.562 Y138.029 E.01907
G1 X123.068 Y137.675 E.01907
G1 X122.658 Y137.226 E.01907
G1 X122.35 Y136.701 E.01907
G1 X122.183 Y136.198 E.01662
M204 S1000
G1 X121.782 Y136.022 F10800
; stop printing object MGN9_Assembly_Tool.stl id:0 copy 0
;LAYER_CHANGE
;Z:0.4
;HEIGHT:0.2
;BEFORE_LAYER_CHANGE
G92 E0.0
;0.4


;WIPE_START
G1 F8640
G1 X122.09 Y135.506 E-.16133
G1 X122.09 Y132.913 E-.59867
;WIPE_END
G1 E-.04 F2100
G1 Z.6 F720
;AFTER_LAYER_CHANGE
;0.4
M140 S110 ; set bed temperature
G1 X118.173 Y132.913 F10800
G1 Z.4 F720
M73 P12 R7
G1 E.8 F2100
;TYPE:Skirt/Brim
;WIDTH:0.42
G1 F3000
G1 X118.173 Y70.883 E1.94491
G1 X118.869 Y69.202 E.05704
M73 Q12 S8
G1 X119.627 Y68.444 E.03362
G1 X119.755 Y68.316 E.00568
G1 X121.433 Y67.623 E.0569
G1 X128.567 Y67.623 E.22368
G1 X130.235 Y68.306 E.05651
G1 X131.131 Y69.202 E.03973
G1 X131.827 Y70.883 E.05704
G1 X131.827 Y139.117 E2.13944
G1 X131.131 Y140.798 E.05704
G1 X130.315 Y141.614 E.0362
G1 X128.567 Y142.377 E.05978
G1 X121.433 Y142.377 E.22368
G1 X119.741 Y141.669 E.05752
G1 X118.869 Y140.798 E.03864
G1 X118.173 Y139.117 E.05704
G1 X118.173 Y132.973 E.19264
; printing object MGN9_Assembly_Tool.stl id:0 copy 0
;WIPE_START
G1 F8640
G1 X118.173 Y129.682 E-.76
;WIPE_END
G1 E-.04 F2100
G1 Z.8 F720
G1 X121.966 Y72.036 F10800
G1 Z.4 F720
G1 E.8 F2100
M204 S800
;TYPE:Perimeter
;WIDTH:0.390242
G1 F1500
G1 X121.966 Y71.47 E.01636
G1 X122.057 Y71.416 E.00304
G1 X122.582 Y71.42 E.01515
G1 X122.256 Y71.719 E.01276
G1 X122.007 Y71.992 E.01067
M204 S1000
;WIPE_START
G1 F8640
G1 X121.966 Y71.47 E-.12093
G1 X122.057 Y71.416 E-.02432
G1 X122.582 Y71.42 E-.12113
G1 X122.256 Y71.719 E-.10202
G1 X122.007 Y71.992 E-.08532
;WIPE_END
G1 E-.34629 F2100
G1 Z.8 F720
G1 X121.589 Y73.591 F10800
G1 Z.4 F720
G1 E.8 F2100
M204 S800
;WIDTH:0.449999
G1 F1500
G1 X121.589 Y71.313 E.07708
G1 X121.863 Y71.039 E.01313
G1 X124.301 Y71.035 E.0825
;WIDTH:0.444893
G1 X124.162 Y71.068 E.00476
;WIDTH:0.449999
G1 X123.466 Y71.315 E.02501
G1 X122.837 Y71.704 E.02502
G1 X122.303 Y72.215 E.02502
G1 X121.887 Y72.825 E.02502
M73 P13 R7
G1 X121.672 Y73.307 E.01784
G1 X121.606 Y73.533 E.00798
M204 S1000
;WIPE_START
G1 F8640
G1 X121.589 Y71.313 E-.51255
G1 X121.863 Y71.039 E-.08954
G1 X122.547 Y71.038 E-.15791
;WIPE_END
G1 E-.04 F2100
G1 Z.8 F720
G1 X128.034 Y72.039 F10800
G1 Z.4 F720
G1 E.8 F2100
M204 S800
;WIDTH:0.388709
G1 F1500
G1 X127.733 Y71.704 E.01295
G1 X127.393 Y71.416 E.01283
G1 X127.943 Y71.416 E.01581
G1 X128.034 Y71.469 E.00305
G1 X128.034 Y71.979 E.01465
M204 S1000
;WIPE_START
G1 F8640
G1 X127.733 Y71.704 E-.09416
G1 X127.393 Y71.416 E-.10301
G1 X127.943 Y71.416 E-.12699
G1 X128.034 Y71.469 E-.02452
M73 Q13 S8
G1 X128.034 Y71.979 E-.11767
;WIPE_END
G1 E-.33365 F2100
G1 Z.8 F720
G1 X128.423 Y73.665 F10800
G1 Z.4 F720
G1 E.8 F2100
M204 S800
;WIDTH:0.449999
G1 F1500
G1 X128.185 Y72.966 E.02501
G1 X127.796 Y72.337 E.02502
G1 X127.285 Y71.803 E.02502
G1 X126.675 Y71.387 E.02502
G1 X125.991 Y71.106 E.02502
G1 X125.471 Y71.018 E.01786
G1 X125.998 Y71.039 E.01786
G1 X128.137 Y71.039 E.0724
G1 X128.411 Y71.313 E.01312
G1 X128.421 Y73.605 E.07757
M204 S1000
;WIPE_START
G1 F8640
G1 X128.185 Y72.966 E-.15743
G1 X127.796 Y72.337 E-.17065
G1 X127.285 Y71.803 E-.17065
G1 X126.675 Y71.387 E-.17065
G1 X126.312 Y71.238 E-.09062
;WIPE_END
G1 E-.04 F2100
G1 Z.8 F720
G1 X128.034 Y138.493 F10800
G1 Z.4 F720
G1 E.8 F2100
M204 S800
;WIDTH:0.388712
G1 F1500
G1 X127.981 Y138.584 E.00305
G1 X127.393 Y138.584 E.0169
G1 X127.507 Y138.502 E.00405
G1 X128.034 Y137.961 E.02172
G1 X128.034 Y138.433 E.01356
M204 S1000
;WIPE_START
G1 F8640
G1 X127.981 Y138.584 E-.03714
G1 X127.393 Y138.584 E-.13575
G1 X127.507 Y138.502 E-.03249
G1 X128.034 Y137.961 E-.17444
G1 X128.034 Y138.433 E-.10891
;WIPE_END
G1 E-.31126 F2100
G1 Z.8 F720
G1 X125.471 Y138.982 F10800
G1 Z.4 F720
G1 E.8 F2100
M204 S800
;WIDTH:0.449999
G1 F1500
G1 X126.193 Y138.828 E.02501
G1 X126.859 Y138.507 E.02502
G1 X127.453 Y138.044 E.0255
G1 X127.924 Y137.486 E.02472
G1 X128.279 Y136.819 E.02558
G1 X128.36 Y136.507 E.0109
;WIDTH:0.42081
G1 X128.44 Y136.195 E.01012
;WIDTH:0.411882
G1 X128.43 Y136.333 E.00424
;WIDTH:0.449999
G1 X128.411 Y136.839 E.01715
G1 X128.411 Y138.687 E.06253
G1 X128.137 Y138.961 E.01313
G1 X125.998 Y138.961 E.07239
G1 X125.531 Y138.98 E.01583
M204 S1000
;WIPE_START
G1 F8640
G1 X126.193 Y138.828 E-.15694
G1 X126.859 Y138.507 E-.17065
G1 X127.453 Y138.044 E-.17397
G1 X127.924 Y137.486 E-.16865
G1 X128.107 Y137.142 E-.08979
;WIPE_END
G1 E-.04 F2100
G1 Z.8 F720
G1 X122.607 Y138.584 F10800
G1 Z.4 F720
G1 E.8 F2100
M204 S800
;WIDTH:0.388712
G1 F1500
G1 X122.057 Y138.584 E.01581
G1 X121.966 Y138.531 E.00305
G1 X121.966 Y137.961 E.01638
G1 X122.267 Y138.296 E.01295
G1 X122.561 Y138.546 E.0111
M204 S1000
;WIPE_START
G1 F8640
G1 X122.057 Y138.584 E-.11676
G1 X121.966 Y138.531 E-.02452
G1 X121.966 Y137.961 E-.13153
G1 X122.267 Y138.296 E-.104
G1 X122.561 Y138.546 E-.08916
;WIPE_END
G1 E-.33403 F2100
G1 Z.8 F720
G1 X121.565 Y136.226 F10800
G1 Z.4 F720
G1 E.8 F2100
M204 S800
;WIDTH:0.412202
G1 F1500
G1 X121.584 Y136.333 E.00333
;WIDTH:0.449999
G1 X121.815 Y137.034 E.02501
G1 X122.204 Y137.663 E.02502
G1 X122.715 Y138.197 E.02502
G1 X123.325 Y138.613 E.02502
G1 X124.009 Y138.894 E.02502
G1 X124.529 Y138.982 E.01786
G1 X124.002 Y138.961 E.01786
G1 X121.863 Y138.961 E.07239
G1 X121.589 Y138.687 E.01313
G1 X121.575 Y136.529 E.07305
;WIDTH:0.420811
G1 X121.561 Y136.224 E.00959
M204 S1000
G1 X121.947 Y136.193 F10800
M204 S800
;WIDTH:0.499554
G1 F2700
G1 X121.905 Y136.041 E.00596
;WIDTH:0.54911
G1 X121.858 Y135.87 E.00749
;WIDTH:0.598665
G1 X121.811 Y135.699 E.00822
G1 X121.798 Y135.501 E.00917
;WIDTH:0.58938
G1 X121.798 Y74.499 E2.77179
;WIDTH:0.606881
