; generated by PrusaSlicer 2.5.0+MacOS-x64 on 2022-12-15 at 17:44:01 UTC


;
;
; 

; external perimeters extrusion width = 0.45mm
; perimeters extrusion width = 0.45mm
; infill extrusion width = 0.45mm
; solid infill extrusion width = 0.45mm
; top infill extrusion width = 0.40mm
; support material extrusion width = 0.35mm
; first layer extrusion width = 0.42mm

M73 P0 R57
M73 Q0 S57
M201 X1000 Y1000 Z200 E5000 ; sets maximum accelerations, mm/sec^2
M203 X200 Y200 Z12 E120 ; sets maximum feedrates, mm / sec
M204 P1250 R1250 T1250 ; sets acceleration (P, T) and retract acceleration (R), mm/sec^2
M205 X8.00 Y8.00 Z0.40 E4.50 ; sets the jerk limits, mm/sec
M205 S0 T0 ; sets the minimum extruding and travel feed rate, mm/sec
M107
;TYPE:Custom
M862.3 P "MK3SMMU2S" ; printer model check
M862.1 P0.4 ; nozzle diameter check
M115 U3.11.0 ; tell printer latest fw version
G90 ; use absolute coordinates
M83 ; extruder relative mode
M104 S260 ; set extruder temp
M140 S105 ; set bed temp
Tx
M190 S105 ; wait for bed temp
M109 S260 ; wait for extruder temp
G28 W ; home all without mesh bed level
G80 ; mesh bed leveling

;go outside print area
G1 Y-3 F1000
G1 Z0.4 F1000
; select extruder
Tc
; purge line
G1 X55 F2000
G1 Z0.3 F1000
G92 E0
G1 X240 E25 F2200
G1 Y-2 F1000
G1 X55 E25 F1400
G1 Z0.2 F1000
M73 P0 R56
G1 X5 E4 F1000

M221 S95
G92 E0

; Don't change E values below. Excessive value can damage the printer.
M907 E430 ; set extruder motor current
G21 ; set units to millimeters
G90 ; use absolute coordinates
M83 ; use relative distances for extrusion
M900 K0.04 ; Filament gcode LA 1.5
M900 K20 ; Filament gcode LA 1.0
M107
;LAYER_CHANGE
;Z:0.2
;HEIGHT:0.2
;BEFORE_LAYER_CHANGE
G92 E0.0
;0.2


G1 E-.8 F2100
G1 Z.4 F720
;AFTER_LAYER_CHANGE
;0.2
G1 X95.819 Y93.449 F10800
G1 Z.2 F720
G1 E.8 F2100
M204 S800
;TYPE:Skirt/Brim
;WIDTH:0.42
G1 F1200
G1 X98.806 Y90.461 E.13247
G1 X100.487 Y89.765 E.05704
G1 X149.513 Y89.765 E1.53717
G1 X151.194 Y90.461 E.05704
G1 X154.181 Y93.449 E.13247
G1 X154.876 Y95.056 E.05491
G1 X155.364 Y110.804 E.49402
G1 X155.376 Y114.599 E.11897
G1 X155.266 Y115.85 E.0394
G1 X155.092 Y116.676 E.02647
G1 X154.737 Y117.728 E.03479
G1 X154.258 Y118.719 E.03451
G1 X153.658 Y119.644 E.03459
G1 X152.533 Y120.879 E.05239
G1 X151.674 Y121.565 E.03447
G1 X150.732 Y122.141 E.0346
G1 X149.974 Y122.491 E.0262
G1 X148.922 Y122.846 E.03478
G1 X148.096 Y123.02 E.02646
G1 X146.844 Y123.13 E.0394
G1 X102.734 Y123.11 E1.38307
G1 X101.639 Y122.975 E.03457
G1 X100.82 Y122.771 E.02646
G1 X99.781 Y122.389 E.0347
G1 X98.326 Y121.565 E.05243
G1 X97.467 Y120.879 E.03447
G1 X96.698 Y120.089 E.03458
G1 X96.189 Y119.428 E.02617
G1 X95.613 Y118.486 E.0346
G1 X95.263 Y117.727 E.02621
G1 X94.908 Y116.676 E.03478
G1 X94.734 Y115.85 E.02646
G1 X94.624 Y114.599 E.0394
G1 X94.639 Y110.737 E.12107
G1 X95.124 Y95.056 E.49191
G1 X95.795 Y93.504 E.05303
M204 S1000
;WIPE_START
G1 F8640
G1 X98.11 Y91.164 E-.76
;WIPE_END
G1 E-.04 F2100
G1 Z.6 F720
G1 X98.408 Y94.94 F10800
G1 Z.2 F720
G1 E.8 F2100
M204 S800
G1 F1200
G1 X98.716 Y94.378 E.02009
G1 X99.622 Y93.443 E.04081
G1 X100.718 Y92.798 E.03989
G1 X102.238 Y92.428 E.04905
G1 X147.79 Y92.432 E1.42824
G1 X148.81 Y92.626 E.03256
G1 X149.788 Y93.042 E.03333
G1 X150.907 Y93.932 E.04483
G1 X151.759 Y95.172 E.04716
G1 X152.181 Y96.579 E.04608
G1 X152.204 Y108.424 E.37138
G1 X152.47 Y109.218 E.02626
G1 X152.696 Y110.851 E.05166
G1 X152.704 Y114.723 E.12141
G1 X152.48 Y116.111 E.04408
G1 X151.956 Y117.371 E.04279
G1 X151.248 Y118.383 E.03873
G1 X150.354 Y119.228 E.03857
G1 X149.221 Y119.912 E.04149
G1 X148.085 Y120.304 E.03768
G1 X146.834 Y120.467 E.03955
G1 X103.126 Y120.464 E1.37043
G1 X102.092 Y120.344 E.03266
M73 P1 R56
M73 Q1 S56
G1 X101.091 Y120.047 E.03272
G1 X99.91 Y119.42 E.04193
G1 X98.704 Y118.328 E.051
G1 X97.833 Y116.952 E.05108
G1 X97.447 Y115.828 E.03726
G1 X97.295 Y114.71 E.03538
G1 X97.3 Y110.88 E.12009
G1 X97.531 Y109.152 E.05464
G1 X97.793 Y108.496 E.02216
G1 X97.791 Y96.781 E.36731
G1 X98.109 Y95.484 E.04185
G1 X98.379 Y94.992 E.0176
M204 S1000
G1 X98.704 Y95.171 F10800
M204 S800
G1 F1200
G1 X99.006 Y94.621 E.01967
G1 X99.836 Y93.755 E.03761
G1 X100.885 Y93.137 E.03818
G1 X102.26 Y92.806 E.04436
G1 X147.771 Y92.809 E1.42697
G1 X148.718 Y92.992 E.03022
G1 X149.615 Y93.378 E.03062
G1 X150.649 Y94.209 E.04158
G1 X151.407 Y95.31 E.04193
G1 X151.804 Y96.609 E.04257
G1 X151.827 Y108.487 E.37244
G1 X152.099 Y109.288 E.02652
G1 X152.32 Y110.89 E.05069
G1 X152.329 Y114.679 E.11882
G1 X152.123 Y115.988 E.04155
G1 X151.635 Y117.173 E.04018
G1 X150.975 Y118.123 E.03625
G1 X150.11 Y118.939 E.03729
G1 X149.045 Y119.578 E.03895
G1 X147.982 Y119.941 E.03522
G1 X146.822 Y120.09 E.03665
G1 X103.159 Y120.088 E1.36904
G1 X102.152 Y119.971 E.0318
G1 X101.218 Y119.691 E.03057
G1 X100.108 Y119.099 E.03942
G1 X98.978 Y118.067 E.048
G1 X98.164 Y116.771 E.04799
G1 X97.81 Y115.724 E.03463
G1 X97.672 Y114.697 E.03249
G1 X97.676 Y110.917 E.11853
G1 X97.902 Y109.227 E.05347
G1 X98.17 Y108.57 E.02224
G1 X98.163 Y96.848 E.36754
G1 X98.469 Y95.598 E.04036
G1 X98.675 Y95.223 E.0134
M204 S1000
G1 X99.001 Y95.405 F10800
M204 S800
G1 F1200
G1 X99.323 Y94.827 E.02075
G1 X100.088 Y94.036 E.03449
G1 X101.05 Y93.477 E.03489
G1 X102.282 Y93.183 E.03973
G1 X147.753 Y93.186 E1.42569
G1 X148.624 Y93.358 E.02785
G1 X149.441 Y93.713 E.0279
G1 X150.389 Y94.483 E.03831
G1 X151.079 Y95.498 E.03849
G1 X151.427 Y96.637 E.03734
G1 X151.45 Y108.551 E.37355
G1 X151.728 Y109.358 E.02677
G1 X151.945 Y110.928 E.0497
G1 X151.954 Y114.637 E.11627
G1 X151.765 Y115.867 E.03903
G1 X151.313 Y116.975 E.03753
G1 X150.677 Y117.891 E.03496
G1 X149.868 Y118.65 E.03478
G1 X148.87 Y119.243 E.03641
G1 X147.88 Y119.578 E.03277
G1 X146.811 Y119.713 E.03377
G1 X103.191 Y119.712 E1.36768
G1 X102.244 Y119.605 E.02989
G1 X101.344 Y119.336 E.02943
G1 X100.308 Y118.779 E.03688
G1 X99.252 Y117.808 E.04498
G1 X98.497 Y116.591 E.0449
G1 X98.174 Y115.623 E.03201
G1 X98.049 Y114.685 E.02965
G1 X98.051 Y110.955 E.11697
G1 X98.272 Y109.303 E.05226
G1 X98.547 Y108.647 E.02228
G1 X98.54 Y96.871 E.36922
G1 X98.828 Y95.714 E.0374
G1 X98.972 Y95.457 E.00922
M204 S1000
G1 X99.296 Y95.64 F10800
M204 S800
G1 F1200
G1 X99.638 Y95.034 E.02183
G1 X100.338 Y94.319 E.03137
G1 X101.213 Y93.818 E.03162
G1 X102.304 Y93.56 E.03516
G1 X147.734 Y93.563 E1.42441
G1 X148.529 Y93.723 E.02544
G1 X149.264 Y94.047 E.02518
G1 X150.128 Y94.757 E.03507
G1 X150.728 Y95.638 E.03342
G1 X151.05 Y96.667 E.03381
G1 X151.073 Y108.658 E.37598
G1 X151.144 Y108.794 E.0048
G1 X151.357 Y109.427 E.02093
G1 X151.57 Y110.967 E.04877
G1 X151.579 Y114.594 E.1137
G1 X151.396 Y115.788 E.03787
G1 X150.991 Y116.778 E.03356
G1 X150.404 Y117.63 E.03243
G1 X149.625 Y118.36 E.03347
G1 X148.696 Y118.908 E.03383
G1 X147.778 Y119.214 E.03032
G1 X146.799 Y119.335 E.03093
G1 X103.201 Y119.335 E1.367
G1 X102.335 Y119.239 E.02732
G1 X101.471 Y118.98 E.02828
G1 X100.509 Y118.459 E.0343
G1 X99.528 Y117.549 E.04195
G1 X98.83 Y116.413 E.04181
G1 X98.538 Y115.523 E.02939
G1 X98.424 Y114.649 E.02762
G1 X98.428 Y110.968 E.11543
G1 X98.642 Y109.379 E.05025
G1 X98.924 Y108.726 E.02232
G1 X98.917 Y96.895 E.37094
G1 X99.187 Y95.832 E.03439
G1 X99.266 Y95.693 E.00503
M204 S1000
G1 X99.589 Y95.875 F10800
M204 S800
G1 F1200
G1 X99.926 Y95.278 E.0215
G1 X100.549 Y94.633 E.02812
G1 X101.377 Y94.159 E.02989
G1 X102.326 Y93.937 E.03056
G1 X147.715 Y93.94 E1.42315
G1 X148.396 Y94.077 E.02178
G1 X149.088 Y94.381 E.02369
G1 X149.867 Y95.03 E.03178
G1 X150.378 Y95.78 E.02847
G1 X150.673 Y96.698 E.03023
G1 X150.697 Y108.758 E.37814
G1 X150.794 Y108.934 E.00631
G1 X150.986 Y109.497 E.01864
G1 X151.195 Y111.006 E.04779
G1 X151.204 Y114.551 E.11113
G1 X151.026 Y115.708 E.03671
G1 X150.668 Y116.582 E.02962
G1 X150.131 Y117.369 E.02988
G1 X149.383 Y118.07 E.03214
G1 X148.524 Y118.572 E.03121
G1 X147.679 Y118.85 E.02788
G1 X146.788 Y118.958 E.02813
G1 X103.212 Y118.958 E1.36631
G1 X102.395 Y118.866 E.02577
G1 X101.6 Y118.625 E.02605
G1 X100.712 Y118.14 E.03173
G1 X99.805 Y117.292 E.03892
G1 X99.164 Y116.237 E.0387
G1 X98.902 Y115.425 E.02676
G1 X98.8 Y114.614 E.02561
G1 X98.805 Y110.981 E.11392
G1 X99.012 Y109.458 E.0482
G1 X99.301 Y108.807 E.02233
G1 X99.294 Y96.92 E.37272
G1 X99.559 Y95.927 E.0322
M204 S1000
G1 X99.903 Y96.074 F10800
M204 S800
G1 F1200
G1 X100.241 Y95.488 E.02118
G1 X100.799 Y94.916 E.02506
G1 X101.537 Y94.501 E.02655
G1 X102.347 Y94.314 E.02606
G1 X147.695 Y94.318 E1.42187
G1 X148.299 Y94.442 E.01933
M73 P2 R55
M73 Q2 S56
G1 X148.909 Y94.714 E.02093
G1 X149.602 Y95.3 E.02846
G1 X150.049 Y95.966 E.02516
G1 X150.305 Y96.783 E.02683
G1 X150.32 Y108.861 E.37871
G1 X150.444 Y109.077 E.00783
G1 X150.615 Y109.568 E.01628
G1 X150.817 Y111.02 E.04599
G1 X150.827 Y114.538 E.11029
G1 X150.668 Y115.588 E.0333
G1 X150.344 Y116.388 E.02708
G1 X149.856 Y117.11 E.02733
G1 X149.174 Y117.756 E.02945
G1 X148.351 Y118.236 E.02986
G1 X147.581 Y118.486 E.02539
G1 X146.777 Y118.581 E.02537
G1 X103.223 Y118.581 E1.36562
G1 X102.456 Y118.493 E.02421
G1 X101.73 Y118.271 E.02381
G1 X100.915 Y117.822 E.02916
G1 X100.083 Y117.036 E.03587
G1 X99.499 Y116.063 E.03559
G1 X99.267 Y115.329 E.02415
G1 X99.176 Y114.58 E.02364
G1 X99.182 Y110.994 E.11244
G1 X99.381 Y109.538 E.0461
G1 X99.678 Y108.89 E.02232
G1 X99.671 Y96.945 E.37455
G1 X99.888 Y96.132 E.02638
M204 S1000
G1 X100.251 Y96.231 F10800
M204 S800
G1 F1200
G1 X100.553 Y95.701 E.01913
G1 X101.047 Y95.202 E.02202
G1 X101.695 Y94.845 E.0232
G1 X102.368 Y94.691 E.02163
G1 X147.675 Y94.695 E1.42058
G1 X148.2 Y94.806 E.01681
G1 X148.727 Y95.046 E.01817
G1 X149.336 Y95.567 E.02513
G1 X149.718 Y96.149 E.02183
G1 X149.936 Y96.865 E.02346
G1 X149.943 Y108.967 E.37946
G1 X150.096 Y109.224 E.00938
G1 X150.245 Y109.64 E.01385
G1 X150.44 Y111.034 E.04416
G1 X150.45 Y114.525 E.10944
G1 X150.31 Y115.469 E.02992
G1 X150.02 Y116.196 E.02454
G1 X149.581 Y116.851 E.02472
G1 X148.931 Y117.466 E.02807
G1 X148.181 Y117.899 E.02714
G1 X147.484 Y118.121 E.02293
G1 X146.767 Y118.204 E.02266
G1 X103.233 Y118.204 E1.36497
G1 X102.549 Y118.128 E.02157
G1 X101.86 Y117.916 E.02262
G1 X101.119 Y117.504 E.02656
G1 X100.392 Y116.819 E.03133
G1 X99.851 Y115.926 E.03272
G1 X99.639 Y115.265 E.02177
G1 X99.551 Y114.546 E.0227
G1 X99.559 Y111.008 E.11094
G1 X99.751 Y109.619 E.04397
G1 X100.055 Y108.976 E.0223
G1 X100.048 Y96.97 E.37644
G1 X100.235 Y96.289 E.02215
M204 S1000
G1 X100.597 Y96.391 F10800
M204 S800
G1 F1200
G1 X100.615 Y96.327 E.00209
G1 X100.863 Y95.917 E.01503
G1 X101.292 Y95.49 E.019
G1 X101.85 Y95.189 E.01986
G1 X102.388 Y95.068 E.0173
G1 X147.654 Y95.072 E1.41927
G1 X148.097 Y95.169 E.01423
G1 X148.543 Y95.376 E.01541
G1 X149.066 Y95.833 E.02178
G1 X149.386 Y96.329 E.0185
G1 X149.567 Y96.945 E.02012
G1 X149.565 Y109.076 E.38037
G1 X149.75 Y109.374 E.01098
G1 X149.874 Y109.713 E.01135
G1 X150.063 Y111.049 E.04229
G1 X150.073 Y114.512 E.1086
G1 X149.951 Y115.352 E.0266
G1 X149.694 Y116.005 E.02202
G1 X149.305 Y116.594 E.02213
G1 X148.722 Y117.151 E.02527
G1 X148.011 Y117.562 E.02574
G1 X147.39 Y117.755 E.02041
G1 X146.756 Y117.827 E.02
G1 X103.244 Y117.827 E1.3643
G1 X102.61 Y117.755 E.02
G1 X101.992 Y117.562 E.02031
G1 X101.326 Y117.187 E.02396
G1 X100.671 Y116.563 E.02836
G1 X100.203 Y115.79 E.02832
G1 X100.004 Y115.168 E.0205
G1 X99.927 Y114.514 E.02064
G1 X99.936 Y111.022 E.10949
G1 X100.12 Y109.702 E.04179
G1 X100.433 Y109.065 E.02224
G1 X100.426 Y96.997 E.37839
G1 X100.581 Y96.449 E.01786
M204 S1000
G1 X100.941 Y96.555 F10800
M204 S800
G1 F1200
G1 X100.969 Y96.46 E.0031
G1 X101.17 Y96.136 E.01195
G1 X101.535 Y95.78 E.016
G1 X102.001 Y95.535 E.01652
G1 X102.408 Y95.445 E.01307
G1 X147.631 Y95.449 E1.41794
G1 X147.991 Y95.532 E.01157
G1 X148.356 Y95.704 E.01266
G1 X148.796 Y96.096 E.01848
G1 X149.032 Y96.462 E.01362
G1 X149.197 Y97.025 E.01842
G1 X149.188 Y109.187 E.38133
G1 X149.405 Y109.527 E.01266
G1 X149.504 Y109.788 E.00875
G1 X149.686 Y111.063 E.04037
G1 X149.696 Y114.5 E.10777
G1 X149.591 Y115.237 E.02332
G1 X149.367 Y115.817 E.01951
G1 X149.026 Y116.339 E.01954
G1 X148.512 Y116.838 E.02247
G1 X147.877 Y117.209 E.02306
G1 X147.328 Y117.383 E.01804
G1 X146.745 Y117.45 E.0184
G1 X103.255 Y117.45 E1.36361
G1 X102.672 Y117.383 E.0184
G1 X102.125 Y117.209 E.01797
G1 X101.533 Y116.871 E.0214
G1 X100.979 Y116.345 E.02395
G1 X100.555 Y115.652 E.02549
G1 X100.376 Y115.104 E.01806
G1 X100.304 Y114.503 E.01896
G1 X100.314 Y111.036 E.10871
G1 X100.489 Y109.787 E.03955
M73 Q2 S55
G1 X100.81 Y109.157 E.02217
G1 X100.803 Y97.025 E.38039
G1 X100.924 Y96.613 E.01347
M204 S1000
G1 X101.282 Y96.723 F10800
M204 S800
G1 F1200
G1 X101.32 Y96.599 E.00409
G1 X101.473 Y96.361 E.00886
G1 X101.774 Y96.072 E.01306
G1 X102.148 Y95.883 E.01316
G1 X102.428 Y95.822 E.00898
G1 X147.61 Y95.826 E1.41663
G1 X147.848 Y95.881 E.00767
G1 X148.168 Y96.033 E.01111
G1 X148.523 Y96.357 E.01508
G1 X148.68 Y96.599 E.00902
G1 X148.82 Y97.054 E.01494
G1 X148.811 Y109.3 E.38395
G1 X149.063 Y109.687 E.01447
G1 X149.134 Y109.866 E.00606
G1 X149.309 Y111.077 E.03837
G1 X149.319 Y114.488 E.10695
G1 X149.231 Y115.123 E.0201
G1 X149.038 Y115.631 E.01702
G1 X148.746 Y116.086 E.01696
G1 X148.299 Y116.526 E.01967
G1 X147.741 Y116.856 E.02031
G1 X147.232 Y117.018 E.01675
G1 X146.735 Y117.073 E.01568
G1 X103.265 Y117.073 E1.36298
G1 X102.768 Y117.018 E.01568
G1 X102.26 Y116.856 E.01672
G1 X101.742 Y116.557 E.01874
G1 X101.259 Y116.091 E.02106
G1 X100.906 Y115.514 E.0212
G1 X100.741 Y115.005 E.01678
G1 X100.681 Y114.494 E.01615
G1 X100.691 Y111.05 E.10796
G1 X100.857 Y109.874 E.03725
G1 X101.106 Y109.405 E.01666
G1 X101.187 Y109.31 E.0039
G1 X101.18 Y97.054 E.38426
G1 X101.264 Y96.781 E.00898
M204 S1000
G1 X101.619 Y96.897 F10800
M204 S800
G1 F1200
G1 X101.67 Y96.742 E.00512
G1 X101.754 Y96.613 E.00484
G1 X101.972 Y96.394 E.00967
G1 X102.296 Y96.231 E.01136
G1 X102.447 Y96.199 E.00484
G1 X147.588 Y96.203 E1.41535
G1 X147.705 Y96.23 E.00377
M73 P3 R55
M73 Q3 S55
G1 X147.979 Y96.36 E.0095
G1 X148.247 Y96.615 E.0116
G1 X148.33 Y96.742 E.00476
G1 X148.443 Y97.086 E.01136
G1 X148.443 Y109.138 E.37787
G1 X148.367 Y109.443 E.00987
G1 X148.575 Y109.621 E.00858
G1 X148.733 Y109.87 E.00925
G1 X148.774 Y109.979 E.00364
G1 X148.932 Y111.091 E.03524
G1 X148.942 Y114.477 E.10616
G1 X148.87 Y115.013 E.01694
G1 X148.708 Y115.447 E.01454
G1 X148.463 Y115.835 E.01439
G1 X148.083 Y116.216 E.01686
G1 X147.603 Y116.505 E.01757
G1 X147.17 Y116.645 E.01429
G1 X146.724 Y116.696 E.01406
G1 X103.276 Y116.696 E1.3623
G1 X102.83 Y116.645 E.01406
G1 X102.397 Y116.504 E.01429
G1 X101.954 Y116.244 E.01609
G1 X101.54 Y115.839 E.01818
G1 X101.257 Y115.374 E.01705
G1 X101.113 Y114.941 E.01432
G1 X101.059 Y114.483 E.01446
G1 X101.068 Y111.065 E.10718
G1 X101.225 Y109.964 E.03486
G1 X101.411 Y109.632 E.01193
G1 X101.631 Y109.442 E.00912
G1 X101.557 Y109.143 E.00968
G1 X101.557 Y97.086 E.37803
G1 X101.6 Y96.954 E.00436
M204 S1000
G1 X101.949 Y97.079 F10800
M204 S800
G1 F1200
G1 X102.033 Y96.867 E.00716
G1 X102.214 Y96.686 E.00802
G1 X102.465 Y96.576 E.00856
G1 X147.567 Y96.583 E1.41417
G1 X147.786 Y96.686 E.00757
G1 X147.967 Y96.867 E.00802
G1 X148.066 Y97.121 E.00856
G1 X148.066 Y109.108 E.37585
G1 X147.999 Y109.346 E.00775
G1 X147.878 Y109.561 E.00771
G1 X148.279 Y109.858 E.01563
G1 X148.401 Y110.051 E.00716
G1 X148.555 Y111.105 E.03342
G1 X148.565 Y114.466 E.10539
G1 X148.508 Y114.904 E.01385
G1 X148.377 Y115.267 E.01209
G1 X148.178 Y115.588 E.01183
G1 X147.865 Y115.907 E.01403
G1 X147.462 Y116.154 E.01482
G1 X147.106 Y116.273 E.01177
G1 X146.713 Y116.319 E.0124
G1 X103.287 Y116.319 E1.3616
G1 X102.894 Y116.273 E.0124
G1 X102.537 Y116.154 E.01181
G1 X102.167 Y115.933 E.0135
G1 X101.848 Y115.62 E.01402
G1 X101.606 Y115.23 E.01437
G1 X101.484 Y114.875 E.01178
G1 X101.436 Y114.472 E.01272
G1 X101.445 Y111.079 E.10639
G1 X101.593 Y110.059 E.03232
G1 X101.709 Y109.865 E.00708
G1 X102.117 Y109.56 E.01597
G1 X102.001 Y109.35 E.0075
G1 X101.934 Y109.113 E.00772
G1 X101.934 Y97.136 E.37553
M204 S1000
G1 X102.311 Y97.163 F10800
M204 S800
G1 F1200
G1 X102.34 Y97.094 E.00235
G1 X102.451 Y96.982 E.00495
