; generated by PrusaSlicer 2.5.0+MacOS-x64 on 2022-12-15 at 17:42:26 UTC


;
;
; 

; external perimeters extrusion width = 0.45mm
; perimeters extrusion width = 0.45mm
; infill extrusion width = 0.45mm
; solid infill extrusion width = 0.45mm
; top infill extrusion width = 0.40mm
; support material extrusion width = 0.35mm
; first layer extrusion width = 0.42mm

; external perimeters extrusion width = 0.45mm
; perimeters extrusion width = 0.45mm
; infill extrusion width = 0.45mm
; solid infill extrusion width = 0.45mm
; top infill extrusion width = 0.40mm
; support material extrusion width = 0.35mm
; first layer extrusion width = 0.42mm

M73 P0 R14
M73 Q0 S14
M201 X1000 Y1000 Z200 E5000 ; sets maximum accelerations, mm/sec^2
M203 X200 Y200 Z12 E120 ; sets maximum feedrates, mm / sec
M204 P1250 R1250 T1250 ; sets acceleration (P, T) and retract acceleration (R), mm/sec^2
M205 X8.00 Y8.00 Z0.40 E4.50 ; sets the jerk limits, mm/sec
M205 S0 T0 ; sets the minimum extruding and travel feed rate, mm/sec
M107
;TYPE:Custom
M862.3 P "MK3SMMU2S" ; printer model check
M862.1 P0.4 ; nozzle diameter check
M115 U3.11.0 ; tell printer latest fw version
G90 ; use absolute coordinates
M83 ; extruder relative mode
M104 S260 ; set extruder temp
M140 S105 ; set bed temp
Tx
M190 S105 ; wait for bed temp
M109 S260 ; wait for extruder temp
G28 W ; home all without mesh bed level
G80 ; mesh bed leveling

;go outside print area
G1 Y-3 F1000
G1 Z0.4 F1000
; select extruder
Tc
; purge line
G1 X55 F2000
G1 Z0.3 F1000
G92 E0
G1 X240 E25 F2200
G1 Y-2 F1000
G1 X55 E25 F1400
G1 Z0.2 F1000
M73 P1 R14
M73 Q1 S14
G1 X5 E4 F1000

M221 S95
G92 E0

; Don't change E values below. Excessive value can damage the printer.
M907 E430 ; set extruder motor current
G21 ; set units to millimeters
G90 ; use absolute coordinates
M83 ; use relative distances for extrusion
M900 K0.04 ; Filament gcode LA 1.5
M900 K20 ; Filament gcode LA 1.0
M107
;LAYER_CHANGE
;Z:0.2
;HEIGHT:0.2
;BEFORE_LAYER_CHANGE
G92 E0.0
;0.2


G1 E-.8 F2100
M73 P2 R14
M73 Q2 S14
G1 Z.4 F720
;AFTER_LAYER_CHANGE
;0.2
G1 X114.585 Y96.81 F10800
G1 Z.2 F720
G1 E.8 F2100
M204 S800
;TYPE:Skirt/Brim
;WIDTH:0.42
G1 F1200
G1 X116.438 Y95.805 E.06609
G1 X122.529 Y95.166 E.19201
G1 X123.899 Y95.373 E.04346
G1 X134.39 Y99.862 E.35777
G1 X135.447 Y100.66 E.04152
G1 X137.496 Y103.19 E.10208
G1 X138.083 Y104.538 E.04612
G1 X137.98 Y105.759 E.03842
G1 X135.385 Y112.571 E.22856
G1 X134.511 Y113.754 E.04612
G1 X133.245 Y114.305 E.04328
G1 X129.952 Y114.828 E.10456
G1 X128.582 Y114.697 E.04313
G1 X116.189 Y110.209 E.41328
G1 X114.99 Y109.357 E.04612
G1 X114.555 Y108.605 E.02721
G1 X112.064 Y102.11 E.21814
G1 X111.923 Y100.645 E.04612
G1 X112.496 Y99.389 E.04328
G1 X114.548 Y96.857 E.10221
M204 S1000
G1 X114.841 Y97.094 F10800
M204 S800
G1 F1200
G1 X114.878 Y97.048 E.00188
G1 X116.478 Y96.18 E.05704
G1 X122.568 Y95.541 E.19201
G1 X123.751 Y95.72 E.03751
G1 X134.242 Y100.208 E.35777
G1 X135.154 Y100.897 E.03584
G1 X137.211 Y103.437 E.1025
G1 X137.73 Y104.699 E.04278
G1 X137.584 Y105.785 E.03434
G1 X135.033 Y112.436 E.22335
G1 X134.199 Y113.516 E.04278
G1 X133.186 Y113.932 E.03435
G1 X129.893 Y114.455 E.10456
G1 X128.711 Y114.342 E.03723
G1 X116.317 Y109.854 E.41328
G1 X114.907 Y108.47 E.06194
G1 X112.416 Y101.974 E.21814
G1 X112.314 Y100.614 E.04278
G1 X112.789 Y99.627 E.03434
G1 X114.803 Y97.141 E.10033
M204 S1000
; printing object Tap_Magnet_Right_r1.stl id:0 copy 0
;WIPE_START
G1 F8640
M73 Q3 S14
G1 X114.878 Y97.048 E-.02771
G1 X116.478 Y96.18 E-.42009
G1 X117.822 Y96.039 E-.31221
;WIPE_END
G1 E-.04 F2100
M73 P3 R14
G1 Z.6 F720
G1 X128.477 Y103.739 F10800
G1 Z.2 F720
G1 E.8 F2100
M204 S800
;TYPE:Perimeter
;WIDTH:0.419999
G1 F1200
G1 X132.356 Y104.146 E.1223
G1 X133.265 Y105.267 E.04525
G1 X131.475 Y109.933 E.15669
G1 X129.719 Y110.212 E.05576
G1 X128.528 Y109.755 E.03999
G1 X126.927 Y107.779 E.07973
G1 X128.455 Y103.795 E.13379
M204 S1000
G1 X128.228 Y103.334 F10800
M204 S800
G1 F1200
G1 X132.551 Y103.787 E.13627
G1 X133.695 Y105.199 E.05697
G1 X131.749 Y110.271 E.17034
G1 X129.678 Y110.6 E.06575
G1 X128.299 Y110.071 E.04633
G1 X126.497 Y107.847 E.08972
G1 X128.207 Y103.39 E.14969
M204 S1000
G1 X127.98 Y102.929 F10800
M204 S800
G1 F1200
G1 X132.745 Y103.428 E.15024
G1 X134.125 Y105.131 E.0687
G1 X132.023 Y110.609 E.18399
G1 X129.637 Y110.988 E.07574
G1 X128.069 Y110.387 E.05266
G1 X126.067 Y107.916 E.09971
G1 X127.958 Y102.985 E.16559
M204 S1000
G1 X127.731 Y102.523 F10800
M204 S800
;TYPE:External perimeter
G1 F1200
G1 X132.94 Y103.069 E.16421
G1 X134.555 Y105.062 E.08042
G1 X132.297 Y110.948 E.19764
G1 X129.597 Y111.376 E.08574
G1 X127.84 Y110.703 E.059
G1 X125.637 Y107.984 E.10971
G1 X127.71 Y102.579 E.18149
M204 S1000
G1 X128.064 Y102.746 F10800
;WIPE_START
G1 F8640
G1 X130.987 Y102.886 E-.76
;WIPE_END
G1 E-.04 F2100
G1 Z.6 F720
G1 X131.425 Y104.162 F10800
G1 Z.2 F720
G1 E.8 F2100
M204 S800
;TYPE:Solid infill
;WIDTH:0.424036
G1 F1200
G1 X132.842 Y105.579 E.0635
G1 X132.693 Y105.968 E.01322
G1 X131.014 Y104.289 E.07524
G1 X130.412 Y104.226 E.01918
G1 X132.543 Y106.358 E.09553
G1 X132.394 Y106.747 E.01322
G1 X129.81 Y104.163 E.11582
G1 X129.208 Y104.1 E.01918
G1 X132.245 Y107.137 E.1361
G1 X132.095 Y107.526 E.01322
G1 X128.649 Y104.08 E.15445
G1 X128.499 Y104.47 E.01322
G1 X131.946 Y107.916 E.15445
G1 X131.796 Y108.306 E.01322
G1 X128.35 Y104.859 E.15445
G1 X128.201 Y105.249 E.01322
G1 X131.647 Y108.695 E.15445
G1 X131.498 Y109.085 E.01322
G1 X128.051 Y105.638 E.15445
G1 X127.902 Y106.028 E.01322
G1 X131.348 Y109.474 E.15445
G1 X131.27 Y109.679 E.00695
G1 X131.049 Y109.714 E.00708
G1 X127.752 Y106.418 E.14774
G1 X127.603 Y106.807 E.01322
M73 Q4 S14
G1 X130.584 Y109.788 E.13359
G1 X130.119 Y109.862 E.01493
M73 P4 R14
G1 X127.454 Y107.197 E.11944
G1 X127.304 Y107.586 E.01322
G1 X129.802 Y110.084 E.11193
M204 S1000
; stop printing object Tap_Magnet_Right_r1.stl id:0 copy 0
; printing object Tap_Magnet_Left_r1.stl id:1 copy 0
;WIPE_START
G1 F8640
G1 X127.474 Y107.756 E-.76
;WIPE_END
G1 E-.04 F2100
G1 Z.6 F720
G1 X121.613 Y99.883 F10800
G1 Z.2 F720
G1 E.8 F2100
M204 S800
;TYPE:Perimeter
;WIDTH:0.419999
G1 F1200
G1 X123.085 Y103.723 E.12894
G1 X121.382 Y105.825 E.08484
G1 X120.266 Y106.253 E.03747
G1 X118.465 Y105.967 E.05717
G1 X116.735 Y101.456 E.15147
G1 X117.676 Y100.296 E.04684
G1 X121.553 Y99.889 E.12223
M204 S1000
G1 X121.861 Y99.478 F10800
M204 S800
G1 F1200
G1 X123.515 Y103.791 E.14484
G1 X121.611 Y106.141 E.09483
G1 X120.307 Y106.641 E.04381
G1 X118.191 Y106.305 E.06717
G1 X116.305 Y101.388 E.16513
G1 X117.481 Y99.937 E.05857
G1 X121.802 Y99.484 E.1362
M204 S1000
G1 X122.11 Y99.073 F10800
M204 S800
G1 F1200
G1 X123.946 Y103.859 E.16074
G1 X121.841 Y106.457 E.10482
G1 X120.348 Y107.029 E.05014
G1 X117.917 Y106.644 E.07716
G1 X115.875 Y101.32 E.17878
G1 X117.287 Y99.578 E.07029
G1 X122.05 Y99.079 E.15017
M204 S1000
G1 X122.358 Y98.667 F10800
M204 S800
;TYPE:External perimeter
G1 F1200
G1 X124.376 Y103.927 E.17664
G1 X122.07 Y106.773 E.11482
G1 X120.388 Y107.418 E.05648
G1 X117.643 Y106.982 E.08716
G1 X115.445 Y101.252 E.19243
G1 X117.092 Y99.219 E.08201
G1 X122.298 Y98.674 E.16414
M204 S1000
G1 X122.294 Y99.062 F10800
;WIPE_START
G1 F8640
G1 X123.509 Y101.735 E-.76
;WIPE_END
G1 E-.04 F2100
G1 Z.6 F720
G1 X122.038 Y101.307 F10800
G1 Z.2 F720
G1 E.8 F2100
M204 S800
;TYPE:Solid infill
;WIDTH:0.436913
G1 F1200
G1 X120.966 Y100.235 E.04968
G1 X120.461 Y100.288 E.01661
G1 X122.09 Y101.917 E.07545
G1 X122.436 Y102.82 E.03171
G1 X119.957 Y100.341 E.11487
G1 X119.453 Y100.394 E.01661
G1 X122.748 Y103.689 E.15269
G1 X122.499 Y103.997 E.01298
G1 X118.948 Y100.447 E.1645
G1 X118.444 Y100.5 E.01661
G1 X122.25 Y104.305 E.17631
G1 X122 Y104.613 E.01298
G1 X117.94 Y100.552 E.18812
G1 X117.822 Y100.565 E.00388
M73 P4 R13
G1 X117.631 Y100.801 E.00994
G1 X121.751 Y104.921 E.19089
G1 X121.501 Y105.228 E.01298
G1 X117.381 Y101.108 E.19089
G1 X117.132 Y101.416 E.01298
M73 Q5 S14
G1 X121.252 Y105.536 E.19089
G1 X121.21 Y105.588 E.00218
M73 P5 R13
G1 X120.875 Y105.717 E.01175
G1 X117.301 Y102.143 E.16557
G1 X117.648 Y103.047 E.03171
M73 Q5 S13
G1 X120.472 Y105.871 E.13085
G1 X120.236 Y105.962 E.0083
G1 X119.963 Y105.918 E.00906
G1 X117.995 Y103.951 E.09117
G1 X118.341 Y104.854 E.03171
G1 X119.505 Y106.018 E.05389
M204 S1000
; stop printing object Tap_Magnet_Left_r1.stl id:1 copy 0
;LAYER_CHANGE
;Z:0.4
;HEIGHT:0.2
;BEFORE_LAYER_CHANGE
G92 E0.0
;0.4


;WIPE_START
G1 F8640
G1 X118.341 Y104.854 E-.3798
G1 X117.995 Y103.951 E-.22353
G1 X118.475 Y104.43 E-.15668
;WIPE_END
G1 E-.04 F2100
G1 Z.6 F720
;AFTER_LAYER_CHANGE
;0.4
M140 S110 ; set bed temperature
G1 X113.662 Y106.276 F10800
G1 Z.4 F720
G1 E.8 F2100
;TYPE:Skirt/Brim
;WIDTH:0.42
G1 F3000
G1 X112.064 Y102.11 E.13992
G1 X111.923 Y100.645 E.04612
G1 X112.496 Y99.389 E.04328
G1 X114.585 Y96.81 E.10409
G1 X116.438 Y95.805 E.06609
G1 X122.529 Y95.166 E.19201
G1 X123.899 Y95.373 E.04346
G1 X134.39 Y99.862 E.35777
G1 X135.447 Y100.66 E.04152
G1 X137.496 Y103.19 E.10208
G1 X138.083 Y104.538 E.04612
G1 X137.98 Y105.759 E.03842
G1 X135.385 Y112.571 E.22856
G1 X134.511 Y113.754 E.04612
G1 X133.245 Y114.305 E.04328
G1 X129.952 Y114.828 E.10456
G1 X128.582 Y114.697 E.04313
G1 X116.189 Y110.209 E.41328
G1 X114.99 Y109.357 E.04612
G1 X114.555 Y108.605 E.02721
G1 X113.684 Y106.332 E.07634
G1 X114.036 Y106.197 F10800
G1 F3000
G1 X112.416 Y101.974 E.1418
G1 X112.314 Y100.614 E.04278
G1 X112.789 Y99.627 E.03434
G1 X114.878 Y97.048 E.10409
G1 X116.478 Y96.18 E.05704
G1 X122.568 Y95.541 E.19201
G1 X123.751 Y95.72 E.03751
G1 X134.242 Y100.208 E.35777
G1 X135.154 Y100.897 E.03584
G1 X137.211 Y103.437 E.1025
G1 X137.73 Y104.699 E.04278
G1 X137.584 Y105.785 E.03434
G1 X135.033 Y112.436 E.22335
G1 X134.199 Y113.516 E.04278
G1 X133.186 Y113.932 E.03435
G1 X129.893 Y114.455 E.10456
G1 X128.711 Y114.342 E.03723
G1 X116.317 Y109.854 E.41328
G1 X114.907 Y108.47 E.06194
G1 X114.057 Y106.253 E.07446
; printing object Tap_Magnet_Right_r1.stl id:0 copy 0
;WIPE_START
G1 F8640
G1 X112.878 Y103.18 E-.76
;WIPE_END
G1 E-.04 F2100
G1 Z.8 F720
G1 X128.282 Y103.422 F10800
G1 Z.4 F720
G1 E.8 F2100
M204 S800
;TYPE:Perimeter
;WIDTH:0.449999
G1 F1500
G1 X132.508 Y103.865 E.14383
G1 X133.601 Y105.214 E.05875
G1 X131.69 Y110.198 E.18068
G1 X129.687 Y110.515 E.06863
G1 X128.349 Y110.002 E.04852
G1 X126.591 Y107.833 E.09451
G1 X128.261 Y103.478 E.15787
M204 S1000
G1 X128.014 Y102.985 F10800
M204 S800
G1 F1500
G1 X132.719 Y103.478 E.16011
G1 X134.065 Y105.14 E.07241
G1 X131.985 Y110.563 E.19659
G1 X129.643 Y110.934 E.08028
G1 X128.101 Y110.343 E.05591
G1 X126.127 Y107.906 E.10616
G1 X127.993 Y103.041 E.17639
M204 S1000
G1 X127.746 Y102.547 F10800
M204 S800
G1 F1500
G1 X132.929 Y103.09 E.17639
G1 X134.53 Y105.066 E.08608
G1 X132.281 Y110.928 E.21251
G1 X129.599 Y111.354 E.09193
G1 X127.853 Y110.684 E.06329
G1 X125.662 Y107.98 E.1178
G1 X127.725 Y102.603 E.19492
M204 S1000
G1 X127.478 Y102.11 F10800
M204 S800
;TYPE:External perimeter
G1 F1500
G1 X133.139 Y102.703 E.19267
G1 X134.994 Y104.993 E.09974
M73 Q6 S13
G1 X132.577 Y111.293 E.22842
M73 P6 R13
G1 X129.555 Y111.773 E.10357
G1 X127.606 Y111.025 E.07067
G1 X125.198 Y108.054 E.12945
G1 X127.456 Y102.166 E.21345
M204 S1000
G1 X127.811 Y102.332 F10800
;WIPE_START
G1 F8640
G1 X130.733 Y102.476 E-.76
;WIPE_END
G1 E-.04 F2100
G1 Z.8 F720
G1 X132.121 Y108.733 F10800
G1 Z.4 F720
G1 E.8 F2100
;TYPE:Solid infill
;WIDTH:0.452246
G1 F3333
G1 X130.828 Y110.025 E.06219
G1 X130.14 Y110.134 E.02371
G1 X132.162 Y108.112 E.09733
G1 X132.523 Y107.173 E.03423
G1 X129.557 Y110.139 E.14273
G1 X129.139 Y109.978 E.01525
G1 X132.883 Y106.234 E.18021
G1 X133.243 Y105.295 E.03423
G1 X128.72 Y109.818 E.21768
G1 X128.534 Y109.746 E.00678
G1 X128.39 Y109.569 E.00778
G1 X133.001 Y104.958 E.22193
G1 X132.742 Y104.638 E.01401
G1 X128.131 Y109.249 E.22193
G1 X127.872 Y108.929 E.01401
G1 X132.483 Y104.318 E.22193
G1 X132.351 Y104.155 E.00714
G1 X132.094 Y104.129 E.00879
G1 X127.613 Y108.609 E.21568
G1 X127.354 Y108.29 E.01401
G1 X131.57 Y104.074 E.20293
G1 X131.046 Y104.019 E.01793
G1 X127.095 Y107.97 E.19018
G1 X126.939 Y107.777 E.00843
G1 X127.082 Y107.403 E.01363
G1 X130.522 Y103.964 E.16556
G1 X129.998 Y103.909 E.01793
G1 X127.443 Y106.464 E.123
G1 X127.803 Y105.525 E.03423
G1 X129.474 Y103.854 E.08045
G1 X128.95 Y103.799 E.01793
G1 X127.845 Y104.905 E.05321
; stop printing object Tap_Magnet_Right_r1.stl id:0 copy 0
; printing object Tap_Magnet_Left_r1.stl id:1 copy 0
;WIPE_START
G1 F8640
G1 X128.95 Y103.799 E-.36099
G1 X129.474 Y103.854 E-.12165
G1 X128.625 Y104.703 E-.27736
;WIPE_END
G1 E-.04 F2100
G1 Z.8 F720
G1 X121.807 Y99.566 F10800
G1 Z.4 F720
G1 E.8 F2100
M204 S800
;TYPE:Perimeter
;WIDTH:0.449999
G1 F1500
G1 X123.422 Y103.776 E.15263
G1 X121.562 Y106.072 E.10003
G1 X120.298 Y106.557 E.0458
G1 X118.251 Y106.232 E.07016
G1 X116.399 Y101.403 E.17506
G1 X117.524 Y100.015 E.06047
G1 X121.747 Y99.572 E.14376
M204 S1000
G1 X122.075 Y99.129 F10800
M204 S800
G1 F1500
G1 X123.886 Y103.85 E.17115
G1 X121.809 Y106.413 E.11167
G1 X120.342 Y106.976 E.05319
G1 X117.955 Y106.597 E.08181
G1 X115.935 Y101.329 E.19097
G1 X117.313 Y99.628 E.07413
G1 X122.016 Y99.135 E.16004
M204 S1000
G1 X122.344 Y98.691 F10800
M204 S800
G1 F1500
G1 X124.35 Y103.923 E.18968
G1 X122.057 Y106.754 E.12332
G1 X120.386 Y107.395 E.06057
G1 X117.659 Y106.962 E.09346
G1 X115.47 Y101.256 E.20688
G1 X117.103 Y99.24 E.0878
G1 X122.284 Y98.697 E.17632
M204 S1000
G1 X122.612 Y98.254 F10800
M204 S800
;TYPE:External perimeter
G1 F1500
G1 X124.815 Y103.997 E.20821
G1 X122.304 Y107.095 E.13497
G1 X120.43 Y107.814 E.06795
G1 X117.363 Y107.327 E.10511
G1 X115.006 Y101.182 E.22279
G1 X116.893 Y98.853 E.10146
G1 X122.552 Y98.26 E.1926
M204 S1000
G1 X122.549 Y98.649 F10800
;WIPE_START
G1 F8640
G1 X123.76 Y101.322 E-.76
;WIPE_END
G1 E-.04 F2100
M73 Q7 S13
G1 Z.8 F720
G1 X120.204 Y106.418 F10800
G1 Z.4 F720
M73 P7 R13
G1 E.8 F2100
;TYPE:Solid infill
;WIDTH:0.450483
G1 F3333
G1 X123.026 Y103.596 E.13525
G1 X122.866 Y103.179 E.01512
G1 X119.866 Y106.179 E.14376
G1 X119.369 Y106.1 E.01707
G1 X122.706 Y102.763 E.15994
G1 X122.546 Y102.346 E.01512
G1 X118.872 Y106.021 E.17613
G1 X118.473 Y105.958 E.01368
G1 X118.441 Y105.875 E.003
G1 X122.387 Y101.93 E.1891
G1 X122.227 Y101.513 E.01512
G1 X118.281 Y105.459 E.1891
G1 X118.122 Y105.042 E.01512
G1 X122.067 Y101.096 E.1891
G1 X121.907 Y100.68 E.01512
G1 X117.962 Y104.625 E.1891
G1 X117.802 Y104.209 E.01512
G1 X121.748 Y100.263 E.1891
G1 X121.606 Y99.894 E.0134
G1 X121.533 Y99.902 E.0025
G1 X117.642 Y103.792 E.18645
G1 X117.482 Y103.376 E.01512
G1 X120.889 Y99.969 E.16325
G1 X120.245 Y100.037 E.02194
G1 X117.323 Y102.959 E.14005
G1 X117.163 Y102.542 E.01512
G1 X119.601 Y100.104 E.11685
G1 X118.957 Y100.172 E.02194
G1 X117.003 Y102.126 E.09365
G1 X116.843 Y101.709 E.01512
G1 X118.519 Y100.034 E.08031
; stop printing object Tap_Magnet_Left_r1.stl id:1 copy 0
;LAYER_CHANGE
;Z:0.6
;HEIGHT:0.2
;BEFORE_LAYER_CHANGE
G92 E0.0
;0.6


;WIPE_START
G1 F8640
G1 X116.843 Y101.709 E-.54719
G1 X117.003 Y102.126 E-.10303
G1 X117.339 Y101.79 E-.10978
;WIPE_END
G1 E-.04 F2100
G1 Z.8 F720
;AFTER_LAYER_CHANGE
;0.6
G1 X112.634 Y103.594 F10800
G1 Z.6 F720
G1 E.8 F2100
;TYPE:Skirt/Brim
;WIDTH:0.42
G1 F3000
G1 X112.064 Y102.11 E.04987
G1 X111.923 Y100.645 E.04612
G1 X112.496 Y99.389 E.04328
G1 X114.585 Y96.81 E.10409
G1 X116.438 Y95.805 E.06609
G1 X122.529 Y95.166 E.19201
G1 X123.899 Y95.373 E.04346
G1 X134.39 Y99.862 E.35777
G1 X135.447 Y100.66 E.04152
G1 X137.496 Y103.19 E.10208
G1 X138.083 Y104.538 E.04612
G1 X137.98 Y105.759 E.03842
G1 X135.385 Y112.571 E.22856
G1 X134.511 Y113.754 E.04612
G1 X133.245 Y114.305 E.04328
G1 X129.952 Y114.828 E.10456
G1 X128.582 Y114.697 E.04313
G1 X116.189 Y110.209 E.41328
G1 X114.99 Y109.357 E.04612
G1 X114.555 Y108.605 E.02721
G1 X112.655 Y103.65 E.16639
G1 X113.007 Y103.515 F10800
G1 F3000
G1 X112.416 Y101.974 E.05175
G1 X112.314 Y100.614 E.04278
G1 X112.789 Y99.627 E.03434
G1 X114.878 Y97.048 E.10409
G1 X116.478 Y96.18 E.05704
G1 X122.568 Y95.541 E.19201
G1 X123.751 Y95.72 E.03751
